modules/framework7-icons/icons/refresh_round_fill.svg

<?xml version="1.0" encoding="UTF-8"?>
<svg width="50px" height="50px" viewBox="0 0 50 50" version="1.1" xmlns="http://www.w3.org/2000/svg" xmlns:xlink="http://www.w3.org/1999/xlink">
    <!-- Generator: Sketch 40.1 (33804) - http://www.bohemiancoding.com/sketch -->
    <title>refresh_round_fill</title>
    <desc>Created with Sketch.</desc>
    <defs></defs>
    <g id="Page-1" stroke="none" stroke-width="1" fill="none" fill-rule="evenodd">
        <g id="refresh_round_fill" fill="#000000">
            <path d="M25,50 C38.8071187,50 50,38.8071187 50,25 C50,11.1928813 38.8071187,0 25,0 C11.1928813,0 0,11.1928813 0,25 C0,38.8071187 11.1928813,50 25,50 Z M10,25 C10,33.2842712 16.7157288,40 25,40 C33.2842712,40 40,33.2842712 40,25 L38,25 C38,32.1797017 32.1797017,38 25,38 C17.8202983,38 12,32.1797017 12,25 C12,17.8202983 17.8202983,12 25,12 L25,10 C16.7157288,10 10,16.7157288 10,25 Z M25,4 L25,17.9090909 L34,10.9545455 L25,4 Z" id="Combined-Shape"></path>
        </g>
    </g>
</svg>

<svg width="50" height="50" viewBox="0 0 50 50" xmlns="http://www.w3.org/2000/svg"><path d="M25 50c13.807 0 25-11.193 25-25S38.807 0 25 0 0 11.193 0 25s11.193 25 25 25zM10 25c0 8.284 6.716 15 15 15 8.284 0 15-6.716 15-15h-2c0 7.18-5.82 13-13 13s-13-5.82-13-13 5.82-13 13-13v-2c-8.284 0-15 6.716-15 15zM25 4v13.91l9-6.955L25 4z" fill="#000" fill-rule="evenodd"/></svg>
